X: 10401
T: Donald MacLean's
R: jig
M: 6/8
K: Amixolydian
a|:A>AA cee|AdA cGB|A>BB B>cc|c>dB cfe|
A>AA cee|AdA cGB|e>cc dBc|1 Ace a3:|2 Ace a2||
|:f|efe A2c|efe cAc|fee c2e|fee faf|efe A2c|
efe caf|1 ecc dBc|Ace a2:|2 e>cc dBc|Ace a3||
A>AA c>cc|dcc dGB|A>Ae cdB|Ace aga|
A>AA c>cc|dcc dGB|e>cc dBc|1 Ace a3:|2 Ace a2e||
aee a2e|fee cee|fee f2e|cee Bee|
aee a2e|fee caf|e>cc dBc|Ace a2e|
aee a2e|fee cee|fee fee|cee Bee|
aee aee|fee caf|e>cc dBc|Ace a2||

